src/stumbleupon.svg

<?xml version="1.0" encoding="UTF-8" standalone="no"?>
<svg width="66px" height="66px" viewBox="0 0 66 66" version="1.1" xmlns="http://www.w3.org/2000/svg" xmlns:xlink="http://www.w3.org/1999/xlink" xmlns:sketch="http://www.bohemiancoding.com/sketch/ns">
    <!-- Generator: Sketch 3.3.3 (12081) - http://www.bohemiancoding.com/sketch -->
    <title>Slice 1</title>
    <desc>Created with Sketch.</desc>
    <defs>
        <path id="path-1" d="M34.0402866,63.936 C50.7622229,62.8837331 64,48.9871938 64,32 C64,14.3274667 49.6725333,0 32,0 C14.3274667,0 0,14.3274667 0,32 C0,48.9871938 13.2377772,62.8837331 29.9597134,63.936 L34.0402866,63.936"></path>
        <path id="path-3" d="M34.0402866,63.936 C50.7622229,62.8837331 64,48.9871938 64,32 C64,14.3274667 49.6725333,0 32,0 C14.3274667,0 0,14.3274667 0,32 C0,48.9871938 13.2377772,62.8837331 29.9597134,63.936 L34.0402866,63.936"></path>
        <path id="path-5" d="M34.0402866,63.936 C50.7622229,62.8837331 64,48.9871938 64,32 C64,14.3274667 49.6725333,0 32,0 C14.3274667,0 0,14.3274667 0,32 C0,48.9871938 13.2377772,62.8837331 29.9597134,63.936 L34.0402866,63.936"></path>
    </defs>
    <g id="Page-1" stroke="none" stroke-width="1" fill="none" fill-rule="evenodd" sketch:type="MSPage">
        <g id="stumbledupon" sketch:type="MSLayerGroup" transform="translate(1.000000, 1.000000)">
            <g id="Imported-Layers">
                <g id="mask-2" fill="#FFFFFF" sketch:type="MSShapeGroup">
                    <path d="M33.9464255,63.8149091 C50.6222535,62.7646351 63.8235294,48.894415 63.8235294,31.9393939 C63.8235294,14.3003313 49.5355686,0 31.9117647,0 C14.2879608,0 0,14.3003313 0,31.9393939 C0,48.894415 13.201276,62.7646351 29.8771039,63.8149091 L33.9464255,63.8149091" id="path-1"></path>
                </g>
                <g id="Fill-1-Clipped">
                    <mask id="mask-2" sketch:name="path-1" fill="white">
                        <use xlink:href="#path-1"></use>
                    </mask>
                    <g id="path-1"></g>
                    <path d="M8.93546667,68 C2.80853333,68 -2.176,63.0144 -2.176,56.8885333 L-2.176,49.3333333 L18.6282667,49.3333333 C22.448,49.3333333 25.5573333,47.1733333 25.5573333,44.5162667 L25.5573333,38.1162667 C25.5573333,36.9514667 24.5856,36.0010667 23.3930667,36.0010667 L15.9264,36.0010667 C13.0016,36.0010667 10.624,33.2490667 10.624,29.8666667 C10.624,26.4842667 13.4922667,23.7333333 17.0197333,23.7333333 L30.3616,23.7333333 C33.8890667,23.7333333 36.7573333,26.6026667 36.7573333,30.1301333 L36.7573333,42.4042667 C36.7573333,46.2261333 39.8656,49.3333333 43.6864,49.3333333 L45.2949333,49.3333333 C49.1168,49.3333333 52.224,46.2261333 52.224,42.4042667 L52.224,0.266666667 L54.4469333,0.266666667 C60.5738667,0.266666667 65.5573333,5.25226667 65.5573333,11.3792 L65.5573333,56.8885333 C65.5573333,63.0144 60.5738667,68 54.4469333,68 L8.93546667,68" id="Fill-1" fill="#0176BC" sketch:type="MSShapeGroup" mask="url(#mask-2)"></path>
                </g>
                <g id="Fill-3-Clipped">
                    <mask id="mask-4" sketch:name="path-1" fill="white">
                        <use xlink:href="#path-3"></use>
                    </mask>
                    <g id="path-1"></g>
                    <path d="M43.6864,48.8 C40.1589333,48.8 37.2906667,45.9317333 37.2906667,42.4042667 L37.2906667,30.1301333 C37.2906667,26.3082667 34.1824,23.2 30.3616,23.2 L17.0197333,23.2 C13.1978667,23.2 10.0906667,26.192 10.0906667,29.8666667 C10.0906667,33.5434667 12.7082667,36.5344 15.9264,36.5344 L23.3930667,36.5344 C24.2912,36.5344 25.024,37.2448 25.024,38.1162667 L25.024,44.5162667 C25.024,46.8778667 22.1546667,48.8 18.6282667,48.8 L-2.176,48.8 L-2.176,11.3792 C-2.176,5.25226667 2.80853333,0.266666667 8.93546667,0.266666667 L51.6906667,0.266666667 L51.6906667,42.4042667 C51.6906667,45.9317333 48.8224,48.8 45.2949333,48.8 L43.6864,48.8" id="Fill-3" fill="#1DAD56" sketch:type="MSShapeGroup" mask="url(#mask-4)"></path>
                </g>
                <g id="Fill-4-Clipped">
                    <mask id="mask-6" sketch:name="path-1" fill="white">
                        <use xlink:href="#path-5"></use>
                    </mask>
                    <g id="path-1"></g>
                    <path d="M28.688,42.1098667 C28.8576,37.0677333 24.6026667,32.7370667 19.2074667,32.4586667 L17.1754667,32.3509333 C15.216,32.2506667 13.5562667,30.6261333 13.5562667,28.8 C13.5562667,27.0378667 15.1904,25.5210667 17.0986667,25.5210667 L30.4426667,25.5210667 C32.3509333,25.5210667 33.824,27.1552 33.824,29.0634667 L33.824,41.3418667 C33.824,46.7786667 38.2474667,51.2 43.6842667,51.2 L45.2970667,51.2 C50.7349333,51.2 55.1573333,46.7786667 55.1573333,41.3418667 L55.1573333,0.0704 C54.9184,0.0586666667 54.6912,0 54.4469333,0 L48.7573333,0 L48.7573333,41.3418667 C48.7573333,43.2501333 47.2053333,44.8 45.2970667,44.8 L43.6842667,44.8 C41.776,44.8 40.224,43.2501333 40.224,41.3418667 L40.224,29.0634667 C40.224,23.6256 35.8016,19.2 30.3616,19.2 L17.0197333,19.2 C11.5818667,19.2 7.15733333,23.5082667 7.15733333,28.8 C7.15733333,34.0053333 11.5029333,38.4661333 16.8405333,38.7413333 L18.8714667,38.8501333 C20.7776,38.9504 22.3456,40.3424 22.2922667,41.8954667 C22.2410667,43.472 20.5610667,44.8 18.6282667,44.8 L-2.44266667,44.8 L-2.44266667,51.2 L18.6282667,51.2 C24.0074667,51.2 28.5205333,47.1210667 28.688,42.1098667" id="Fill-4" fill="#FFFFFF" sketch:type="MSShapeGroup" mask="url(#mask-6)"></path>
                </g>
            </g>
        </g>
    </g>
</svg>

<svg width="66" height="66" viewBox="0 0 66 66" xmlns="http://www.w3.org/2000/svg" xmlns:xlink="http://www.w3.org/1999/xlink"><title>Slice 1</title><defs><path id="a" d="M34.04 63.936C50.762 62.884 64 48.986 64 32 64 14.327 49.673 0 32 0 14.327 0 0 14.327 0 32c0 16.987 13.238 30.884 29.96 31.936h4.08"/><path id="c" d="M34.04 63.936C50.762 62.884 64 48.986 64 32 64 14.327 49.673 0 32 0 14.327 0 0 14.327 0 32c0 16.987 13.238 30.884 29.96 31.936h4.08"/><path id="e" d="M34.04 63.936C50.762 62.884 64 48.986 64 32 64 14.327 49.673 0 32 0 14.327 0 0 14.327 0 32c0 16.987 13.238 30.884 29.96 31.936h4.08"/></defs><g fill="none" fill-rule="evenodd"><path d="M34.946 64.815c16.676-1.05 29.878-14.92 29.878-31.876C64.824 15.3 50.536 1 32.912 1S1 15.3 1 32.94c0 16.954 13.2 30.825 29.877 31.875h4.07" id="b" fill="#FFF"/><path d="M8.935 68c-6.126 0-11.11-4.986-11.11-11.11v-7.557h20.803c3.82 0 6.93-2.16 6.93-4.817v-6.4c0-1.165-.972-2.115-2.165-2.115h-7.467c-2.924 0-5.302-2.75-5.302-6.133s2.868-6.134 6.396-6.134h13.342c3.527 0 6.395 2.87 6.395 6.397v12.274c0 3.822 3.11 6.93 6.93 6.93h1.608c3.822 0 6.93-3.108 6.93-6.93V.267h2.222c6.127 0 11.11 4.985 11.11 11.112v45.51c0 6.124-4.983 11.11-11.11 11.11H8.935" fill="#0176BC" mask="url(#b)" transform="translate(1 1)"/><g transform="translate(1 1)"><mask id="d" fill="#fff"><use xlink:href="#c"/></mask><path d="M43.686 48.8c-3.527 0-6.395-2.868-6.395-6.396V30.13c0-3.822-3.108-6.93-6.928-6.93H17.02c-3.822 0-6.93 2.992-6.93 6.667 0 3.676 2.618 6.667 5.836 6.667h7.467c.898 0 1.63.71 1.63 1.582v6.4c0 2.362-2.868 4.284-6.395 4.284H-2.176V11.38C-2.176 5.25 2.81.266 8.934.266h42.757v42.137c0 3.528-2.868 6.396-6.395 6.396h-1.61" fill="#1DAD56" mask="url(#d)"/></g><g transform="translate(1 1)"><mask id="f" fill="#fff"><use xlink:href="#e"/></mask><path d="M28.688 42.11c.17-5.042-4.085-9.373-9.48-9.65l-2.033-.11c-1.96-.1-3.62-1.724-3.62-3.55 0-1.762 1.635-3.28 3.544-3.28h13.343c1.908 0 3.38 1.635 3.38 3.543v12.28c0 5.436 4.424 9.857 9.86 9.857h1.614c5.438 0 9.86-4.42 9.86-9.858V.07c-.24-.01-.466-.07-.71-.07h-5.69v41.342c0 1.908-1.552 3.458-3.46 3.458h-1.613c-1.908 0-3.46-1.55-3.46-3.458v-12.28c0-5.436-4.422-9.862-9.862-9.862H17.02c-5.438 0-9.863 4.308-9.863 9.6 0 5.205 4.346 9.666 9.684 9.94l2.03.11c1.908.1 3.476 1.492 3.422 3.045-.05 1.577-1.73 2.905-3.664 2.905h-21.07v6.4h21.07c5.38 0 9.893-4.08 10.06-9.09" fill="#FFF" mask="url(#f)"/></g></g></svg>
